svg/ionicons/logo-ionic.svg

<svg xmlns="http://www.w3.org/2000/svg" width="512" height="512" viewBox="0 0 512 512"><path d="M73.6 256c0-100.737 81.663-182.4 182.4-182.4 40.552 0 77.992 13.212 108.286 35.603 7.946-18.702 23.958-33.15 43.67-38.976C366.589 36.357 313.656 16 256 16 123.451 16 16 123.452 16 256s107.451 240 240 240c132.548 0 239.999-107.452 239.999-240 0-27.741-4.718-54.427-13.407-79.269-11.824 15.985-30.428 26.649-51.564 27.742 4.795 16.319 7.371 33.605 7.371 51.527 0 100.737-81.663 182.4-182.399 182.4S73.6 356.737 73.6 256"/><path d="M491.065 207.374a238 238 0 00-8.473-30.643c-11.823 15.984-30.428 26.649-51.564 27.742a181.6 181.6 0 016.719 35.964c22.259-2.737 41.5-15.226 53.318-33.063M256 361.001c57.853 0 105-47.057 105-105 0-57.854-47.057-105-105-105s-105 47.146-105 105 47.147 105 105 105M413.5 166c28.995 0 52.5-23.505 52.5-52.5S442.495 61 413.5 61 361 84.505 361 113.5s23.505 52.5 52.5 52.5"/></svg>

<svg width="512" height="512" viewBox="0 0 512 512" xmlns="http://www.w3.org/2000/svg">
<path d="M73.5999 256C73.5999 155.263 155.263 73.6 256 73.6C296.552 73.6 333.992 86.8115 364.286 109.203C372.232 90.5013 388.244 76.0537 407.956 70.227C366.589 36.3569 313.656 16 256 16C123.451 16 16 123.452 16 256C16 388.548 123.451 496 256 496C388.548 496 495.999 388.548 495.999 256C495.999 228.259 491.281 201.573 482.592 176.731C470.768 192.716 452.164 203.38 431.028 204.473C435.823 220.792 438.399 238.078 438.399 256C438.399 356.737 356.736 438.4 256 438.4C155.263 438.4 73.5999 356.737 73.5999 256Z" />
<path d="M491.065 207.374C488.908 196.899 486.068 186.667 482.592 176.731C470.769 192.715 452.164 203.38 431.028 204.473C434.42 216.016 436.702 228.043 437.747 240.437C460.006 237.7 479.247 225.211 491.065 207.374Z" />
<path d="M256 361.001C313.853 361.001 361 313.944 361 256.001C361 198.147 313.943 151.001 256 151.001C198.057 151.001 151 198.147 151 256.001C151 313.854 198.147 361.001 256 361.001Z" />
<path d="M413.5 166C442.495 166 466 142.495 466 113.5C466 84.5055 442.495 61.0004 413.5 61.0004C384.505 61.0004 361 84.5055 361 113.5C361 142.495 384.505 166 413.5 166Z" />
</svg>
